X:3
T:King of the Fairies
M:C|
L:1/8
K:E Minor
B,|EDEF GFGA|BcBA G3A|B2E2 EFGE|FGFE D2B,2|!
EDEF GFGA|BAGB d3c|B2E2 GFED|E6:|!
K:E Dorian
d|e2e2 Bdef|gagf e3f|e2B2 BABc|dedc BcdB|!
e2B2 Bdef|gagf efed|Bdeg fedf|e6ef|!
g3e f3d|edBc d3e|dBAF GABc|dBAF GFED|!
B,2E2 EFGA|B2e2 edef|e2B2 BAGF|E6:|!
